pix/e/visual_blocks.svg

<!DOCTYPE svg PUBLIC "-//W3C//DTD SVG 1.1//EN" "http://www.w3.org/Graphics/SVG/1.1/DTD/svg11.dtd" [
	<!ENTITY ns_flows "http://ns.adobe.com/Flows/1.0/">
]><svg xmlns="http://www.w3.org/2000/svg" width="16" height="16" viewBox="-1 0 16 16" preserveAspectRatio="xMinYMid meet" overflow="visible"><path d="M13.1 3.1L10.9.9C10.4.4 9.4 0 8.8 0H1.2C.6 0 0 .6 0 1.2v13.5c0 .7.6 1.3 1.2 1.3h11.5c.7 0 1.2-.6 1.2-1.2V5.2c.1-.6-.3-1.6-.8-2.1zM10 1.4c.1 0 .1.1.2.1l2.2 2.2s.1.1.1.2H10V1.4zm3 13.3c0 .1-.1.3-.2.3H1.2c-.1 0-.2-.1-.2-.3V1.2c0-.1.1-.2.2-.2H9v4h4v9.7zm-2.8-8L13 9.5l-2.8 2.8-.7-.7 2.1-2.1-2.1-2.1.7-.7zm-5.7.7L2.4 9.5l2.1 2.1-.7.7L1 9.5l2.8-2.8.7.7zm.1 6.4c.3 0 .5-.1.6-.2.1-.1.1-.3.1-.5V8.4c0-.2 0-.4-.1-.5s-.1-.1-.3-.1h-.2v-.1l.5-.2s.3-.1 1-.3 0 0 0 .1V8c.2-.2.4-.4.6-.5.2-.2.5-.3.9-.3s.8.2 1.2.6c.3.4.5.9.5 1.6 0 .7-.2 1.2-.6 1.8-.4.5-.9.8-1.5.8-.2 0-.3 0-.5-.1s-.4-.2-.6-.4V13c0 .3.1.5.2.6s.3.1.7.2v.2H4.6v-.2zm2-2.4c.2.1.4.2.6.2.4 0 .7-.2.9-.5.2-.3.4-.8.4-1.5 0-.6-.1-1-.4-1.3s-.6-.5-.9-.5c-.3 0-.5.1-.7.2-.2.2-.3.3-.3.4v2.5c.1.2.2.4.4.5z" fill="#999"/></svg>

<?xml version="1.0" encoding="utf-8"?>
<!-- Generator: Adobe Illustrator 15.1.0, SVG Export Plug-In  -->
<!DOCTYPE svg PUBLIC "-//W3C//DTD SVG 1.1//EN" "http://www.w3.org/Graphics/SVG/1.1/DTD/svg11.dtd" [
	<!ENTITY ns_flows "http://ns.adobe.com/Flows/1.0/">
]>
<svg version="1.1"
	 xmlns="http://www.w3.org/2000/svg" xmlns:xlink="http://www.w3.org/1999/xlink" xmlns:a="http://ns.adobe.com/AdobeSVGViewerExtensions/3.0/"
	 x="0px" y="0px" width="16px" height="16px" viewBox="-1 0 16 16" style="overflow:visible;enable-background:new -1 0 16 16;"
	 xml:space="preserve" preserveAspectRatio="xMinYMid meet">
<defs>
</defs>
<path style="fill:#999999;" d="M13.1,3.1l-2.2-2.2C10.4,0.4,9.4,0,8.8,0H1.2C0.6,0,0,0.6,0,1.2v13.5C0,15.4,0.6,16,1.2,16h11.5
	c0.7,0,1.2-0.6,1.2-1.2V5.2C14,4.6,13.6,3.6,13.1,3.1z M10,1.4c0.1,0,0.1,0.1,0.2,0.1l2.2,2.2c0,0,0.1,0.1,0.1,0.2H10V1.4z M13,14.7
	c0,0.1-0.1,0.3-0.2,0.3H1.2C1.1,15,1,14.9,1,14.7V1.2C1,1.1,1.1,1,1.2,1h7.5C8.8,1,8.9,1,9,1v4h4c0,0.1,0,0.2,0,0.2V14.7z M10.2,6.7
	L13,9.5l-2.8,2.8l-0.7-0.7l2.1-2.1L9.5,7.4L10.2,6.7z M4.5,7.4L2.4,9.5l2.1,2.1l-0.7,0.7L1,9.5l2.8-2.8L4.5,7.4z M4.6,13.8
	c0.3,0,0.5-0.1,0.6-0.2c0.1-0.1,0.1-0.3,0.1-0.5V8.4c0-0.2,0-0.4-0.1-0.5S5.1,7.8,4.9,7.8c0,0-0.1,0-0.1,0s-0.1,0-0.1,0V7.7l0.5-0.2
	c0,0,0.3-0.1,1-0.3c0,0,0,0,0,0s0,0,0,0.1v0.7c0.2-0.2,0.4-0.4,0.6-0.5C7,7.3,7.3,7.2,7.7,7.2c0.4,0,0.8,0.2,1.2,0.6
	c0.3,0.4,0.5,0.9,0.5,1.6c0,0.7-0.2,1.2-0.6,1.8c-0.4,0.5-0.9,0.8-1.5,0.8c-0.2,0-0.3,0-0.5-0.1c-0.2-0.1-0.4-0.2-0.6-0.4V13
	c0,0.3,0.1,0.5,0.2,0.6s0.3,0.1,0.7,0.2V14H4.6V13.8z M6.6,11.4c0.2,0.1,0.4,0.2,0.6,0.2c0.4,0,0.7-0.2,0.9-0.5
	c0.2-0.3,0.4-0.8,0.4-1.5c0-0.6-0.1-1-0.4-1.3S7.5,7.8,7.2,7.8C6.9,7.8,6.7,7.9,6.5,8C6.3,8.2,6.2,8.3,6.2,8.4v2.5
	C6.3,11.1,6.4,11.3,6.6,11.4z"/>
</svg>
